packages/core/src/svgs/tokens/branded/GORA.svg

<svg width="24" height="24" viewBox="0 0 24 24" fill="none" xmlns="http://www.w3.org/2000/svg">
<path fill-rule="evenodd" clip-rule="evenodd" d="M8.27756 3.76568C7.84233 3.76568 7.50119 3.91272 7.26003 4.26563L2.75469 10.8237C2.47236 11.2354 2.45473 11.7647 2.69587 12.1941L4.34274 15.0232C4.4368 14.4613 4.6321 13.9213 4.91914 13.4293L8.40697 7.05353C8.56858 6.7688 8.80298 6.53214 9.08618 6.36782C9.36933 6.20349 9.69115 6.1174 10.0186 6.11836H14.6121C14.7616 6.11947 14.9092 6.15139 15.0459 6.2121C15.1825 6.27282 15.3052 6.36104 15.4062 6.47125L17.1882 4.44795C16.8119 3.84803 16.1178 3.76568 15.8591 3.76568H8.27169H8.27756ZM4.86621 15.9289L7.01889 19.6462C7.25416 20.0461 7.6894 20.2285 8.15994 20.2285H16.2943C16.7824 20.2285 17.2353 20.0285 17.4589 19.605L21.3231 12.047C21.7878 11.1824 21.1466 10.2297 20.1585 10.2297H18.3353C18.4058 10.3473 18.4529 10.3944 18.4764 10.5237C18.533 10.9609 18.4658 11.4051 18.2823 11.8059L18.2705 11.8177L15.565 16.3759C15.2297 16.8818 14.6533 17.2876 14.0357 17.2876H9.9891C9.34215 17.2876 8.74221 16.8465 8.40697 16.2995L6.48955 13.1763V13.1704C6.3778 12.9764 6.25428 12.6176 6.23074 12.1648L5.37203 13.6939C5.24851 13.894 5.07794 14.2527 4.95442 14.6762C4.8368 15.0879 4.77798 15.5349 4.86621 15.9348V15.9289ZM6.96007 10.8648L8.86573 7.30645C9.101 6.89473 9.53621 6.70652 10.0186 6.70652H14.6121C15.0238 6.70652 15.1944 7.0653 15.3473 7.37703L17.8176 4.50677L17.7412 4.35974C17.2648 3.41866 16.3472 3.17752 15.9296 3.17752H8.34227C7.73646 3.17752 7.16593 3.4716 6.81892 3.97743L2.31944 10.5296C2.12527 10.8098 2.01496 11.1394 2.00141 11.4801C1.98788 11.8207 2.07167 12.1582 2.24298 12.453L6.566 19.905C6.88949 20.4755 7.50119 20.8225 8.15994 20.8225H16.2943C16.9766 20.8225 17.6059 20.446 17.9236 19.8521L21.7937 12.294C21.9392 12.0153 22.01 11.7035 21.9989 11.3891C21.9879 11.0748 21.8955 10.7686 21.7307 10.5007C21.5659 10.2328 21.3344 10.0123 21.0588 9.86065C20.7832 9.709 20.473 9.63146 20.1585 9.63558H13.6886C13.0299 9.63558 12.4241 9.98266 12.0948 10.5473L10.5302 13.1175C10.2302 13.6351 10.6067 14.3526 11.2126 14.3526H16.1296L15.1297 16.0936C15.0092 16.2779 14.8453 16.43 14.6526 16.5365C14.4599 16.6431 14.2442 16.701 14.0239 16.7053H9.97743C9.74824 16.6993 9.52441 16.6352 9.32692 16.5189C9.12935 16.4027 8.96461 16.2381 8.84809 16.0407L6.94244 12.9058C6.80727 12.5822 6.73865 12.2347 6.74067 11.8841C6.7427 11.5335 6.81531 11.1868 6.9542 10.8648H6.96007ZM16.4707 13.7645H11.2126C11.1672 13.7644 11.1226 13.7523 11.0833 13.7296C11.0441 13.7069 11.0115 13.6741 10.9889 13.6349C10.9662 13.5955 10.9543 13.551 10.9543 13.5056C10.9544 13.4602 10.9664 13.4157 10.989 13.3763L12.5417 10.8061C12.7771 10.4001 13.2123 10.2355 13.6886 10.2355H17.2412C18.094 10.2355 18.0646 10.9649 17.7941 11.5884L16.4707 13.7645Z" fill="url(#paint0_linear_364_11568)"/>
<defs>
<linearGradient id="paint0_linear_364_11568" x1="3.84279" y1="10.1826" x2="19.2998" y2="16.8229" gradientUnits="userSpaceOnUse">
<stop stop-color="#5CCB38"/>
<stop offset="0.35" stop-color="#EEFDFE"/>
<stop offset="0.48" stop-color="#77D264"/>
<stop offset="0.79" stop-color="#E9F6FA"/>
<stop offset="1" stop-color="#DCFDF0"/>
</linearGradient>
</defs>
</svg>

<svg xmlns="http://www.w3.org/2000/svg" width="24" height="24" fill="none" viewBox="0 0 24 24">
    <path fill="url(#GORA__a)" fill-rule="evenodd" d="M8.278 3.766c-.436 0-.777.147-1.018.5l-4.505 6.558c-.283.411-.3.94-.06 1.37l1.648 2.83c.094-.563.29-1.103.576-1.595l3.488-6.375a1.85 1.85 0 0 1 1.612-.936h4.593a1.1 1.1 0 0 1 .794.353l1.782-2.023c-.376-.6-1.07-.682-1.329-.682H8.272zM4.866 15.929l2.153 3.717c.235.4.67.582 1.14.582h8.135c.488 0 .941-.2 1.165-.623l3.864-7.558c.465-.865-.176-1.817-1.165-1.817h-1.823c.07.117.118.164.141.294.057.437-.01.881-.194 1.282l-.012.012-2.705 4.558c-.335.506-.912.912-1.53.912H9.99c-.647 0-1.247-.442-1.582-.989L6.49 13.176v-.006c-.112-.194-.236-.552-.26-1.005l-.858 1.529c-.123.2-.294.559-.418.982-.117.412-.176.859-.088 1.259zm2.094-5.064 1.906-3.559c.235-.411.67-.6 1.153-.6h4.593c.412 0 .582.36.735.671l2.47-2.87-.076-.147c-.476-.941-1.394-1.182-1.811-1.182H8.342c-.606 0-1.176.294-1.523.8l-4.5 6.552a1.79 1.79 0 0 0-.076 1.923l4.323 7.452c.323.57.935.918 1.594.918h8.134c.683 0 1.312-.377 1.63-.97l3.87-7.559a1.817 1.817 0 0 0-1.636-2.658h-6.47c-.658 0-1.264.347-1.593.911l-1.565 2.57c-.3.518.077 1.236.683 1.236h4.917l-1 1.74a1.35 1.35 0 0 1-1.106.612H9.977a1.35 1.35 0 0 1-1.129-.664l-1.906-3.135a2.6 2.6 0 0 1 .012-2.041zm9.51 2.9h-5.257a.26.26 0 0 1-.224-.389l1.553-2.57c.235-.406.67-.57 1.147-.57h3.552c.853 0 .824.729.553 1.352z" clip-rule="evenodd"/>
    <defs>
        <linearGradient id="GORA__a" x1="3.843" x2="19.3" y1="10.183" y2="16.823" gradientUnits="userSpaceOnUse">
            <stop stop-color="#5CCB38"/>
            <stop offset=".35" stop-color="#EEFDFE"/>
            <stop offset=".48" stop-color="#77D264"/>
            <stop offset=".79" stop-color="#E9F6FA"/>
            <stop offset="1" stop-color="#DCFDF0"/>
        </linearGradient>
    </defs>
</svg>
